X:1
T:Title
%%score { 1 | 2 }
L:1/8
Q:1/4=112
M:3/4
K:Eb
V:1 treble nm="Grand Piano"
V:2 bass 
V:1
 G2 G2 [FA]2 | [GB]3 [_G=A] [=GB]2 | [Ac]2 [GB]2 [EG]2 | [DF]2 [FA]4 | [DF]2 [DF]2 [EG]2 | %5
w: W.~A.~Spencer * *|||||
 [FA]3 [=EG] [FA]2 | [Ad]2 [Ad]2 [DAc]2 | [EGB]6 | [B,EG]2 [B,EG]2 [B,GB]2 | [Ge]3 [Ad] [Be]2 | %10
w: |||||
 f2 e2 d2 | c2 e4 | d2 c2 B2 | [GB]2 [Ge]3 [B,EG] | [EG]2 [EG]3 [A,DF] | [G,B,E]6 | %16
w: ||||||
 [B,EG]2 [B,EG]3 [B,FA] | [EGB]6 | [EBe]2 [EBe]3 [EBd] | [EAc]6 | [DF]2 [DF]3 [EG] | [FA]6 | %22
w: ||||||
 [FAd]2 [FAd]3 [EAc] | [DFB]6 | [B,EG]2 [B,GB]3 [B,GB] | [Ge]4 [Ad][Be] | f2 e2 d2 | c2 e4 | %28
w: ||||||
 d2 c2 B2 | [GB]2 [Ge]4 | G2 G3 [DF] | [B,E]6 |] %32
w: ||||
V:2
 [E,B,E]2 [E,B,E]2 [E,B,]2 | [E,E]3 [E,E] [E,E]2 | [E,E]2 [E,E]2 [E,B,]2 | [B,,B,]2 [B,,B,]4 | %4
 [B,,B,]2 [B,,B,]2 [B,,B,]2 | [B,,B,]3 [B,,B,] [B,,B,]2 | [B,,B,]2 [B,,B,]2 B,,2 | E,6 | %8
 E,2 E,2 E,2 | [E,B,]3 [F,B,] [G,B,]2 | [A,CA]2 [A,CA]2 [A,=B,A]2 | [A,CA]2 [A,CA]4 | %12
 [B,FA]2 [B,EA]2 [B,DA]2 | [E,E]2 [E,B,]3 E, | B,2 B,3 B,, | E,6 | E,2 E,3 E, | E,6 | G,2 G,3 G, | %19
 A,6 | B,2 B,3 B, | B,6 | B,,2 B,,3 B,, | B,,6 | E,2 E,3 E, | [E,B,]4 [F,B,][G,B,] | %26
 [A,CA]2 [A,CA]2 [A,=B,A]2 | [A,CA]2 [A,CA]4 | [B,FA]2 [B,EA]2 [B,DA]2 | [E,E]2 [E,B,]4 | %30
 [B,E]2 [B,E]3 [B,,A,] | [E,G,]6 |] %32

